X:3503
T:Laird o' Cockpen, The
O:england
M:6/8
L:1/8
R:Jig
K:Gm
D|"Gm"G>AG B2 B|"F"AFF F2A|"Gm"GAG "Eb"g2 g|"Bb"f<dd d2e|"Bb"fBd fed|"Cm
"cdB "F"A2 B/c/|"Gm"d>ed "D"d2 c|"Gm"BGG G2||d|"Gm"g2g gab|"F"a<ff f2a|"
Gm"gBd "Eb"gag|"Bb"fdd d2e|"Bb"fBd fed|"Cm"cdB "F"A2 B/c/|"Gm"d>ed "D"d2
c|"Gm"BGG G2||


